X:17
T:Planxty Hewlett (waltz)
I:titlefont Times-Roman 24
I:partsfont Times-Roman 20
M:3/4
L:1/8
O:Turlough O'Carolan (28.1.2014/NS)
R:waltz
K:Dmaj
|:A2|"D"D2 D2 FG|"A"AB c2 A2|"Bm"d2 f3  g|"G"fe d3B|
"D"A2 F2 F2|"A"G2 GA BG|"D"AF D2 "A"DE|"D"D4:|
%%vskip
|:AB|"D"A2 D2 AB|"A/C#"A2 D2 AB|"Hm"A2 d3 d|"A"dc BA GF|
"G"G2 GA GA|"D/F#"G2 GA GA|"Em"G2 GA BG|"D"AF D3E|
"D"FE F2 G2|"A"AB c2 A2|"Hm"fe fg ag|"G"fe d3B|
"D"A2 F2 F2|"A"G2GA BG|"D"AF D2 "A"DE|"D"D4:|
%%vskip
W:Planxty Hewlett
%%vskip
W:||: A2 | D2 D2 FG | AB c2 A2 | d2 f3  g | fe d3 B |
W:A2 F2 F2 | G2 GA BG | AF D2 DE | D4 :|
%%vskip
W:||: AB | A2 D2 AB | A2 D2 AB | A2 d3 d | dc BA GF |
W:G2 GA GA | G2 GA GA | G2 GA BG | AF D3 E |
W:FE F2 G2 | AB c2 A2 | fe fg ag | fe d3 B |
W:A2 F2 F2 | G2 GA BG | AF D2 DE | D4 :|
%

